X:1
T:When We Get Home
T:When We Get Home
T:Robert Dean Burleson
T:Winifred A. Cheaney, 1904
T:Public Domain Courtesy of the Cyber Hymnal™
T:Public Domain Courtesy of the Cyber Hymnal™
C:Robert Dean Burleson
Z:Public Domain
Z:Courtesy of the Cyber Hymnal™
%%score ( 1 2 ) ( 3 4 )
L:1/8
Q:1/4=90
M:3/4
K:Ab
V:1 treble 
V:2 treble 
V:3 bass 
V:4 bass 
V:1
 E[CA] [DB] | [Ec]3 [DB] [DE][DB] | [CA]3 [Ac] [GB][Ac] | [ce][Bd] [Bd]3 [Ge] | [Ac]3 E [CA][DB] | %5
w: 1.~When we get|home, O bless- èd|hope! We speak the|words with tremb- ling|tongue, While in this|
w: 2.~When we get|home, O sweet re-|lease, From sin and|sor- row, pain and|tears, To feel the|
w: 3.~When we get|home, O rich re-|ward, To meet our|loved ones gone be-|fore, To feel the|
 [Ec]3 [DB] [DE][DB] | [CA]3 [Ac] [GB][Ac] | [ce][Bd] c2 [DB]2 | [CA]3 || %9
w: world of sin we|grope, Where heads are|bowed and hearts are|wrung.|
w: calm of per- fect|peace, And know all|joy thro’ end- less|years.|
w: pre- sence of our|Lord, And know the|love that shall en-|dure.|
[M:4/4]"^Refrain" A[Ac]>[ce] | [ce]4- [ce]c A>A | (z [EA]2) x8 | [Ac]>[Ac] [Ac][FA] [FB]2 [A=d]2 | %13
w: When we get|home, * when we get||home, To heav’n- ly lands and|
w: ||||
w: ||||
 [Ge]4 z E[CA][DB] | [Ec]4- [Ec]BEB | (z [Ec]2) x10 | [Ae][Af][Ae][EA] [Ec]2 [DB]2 | [CA]4- [CA] |] %18
w: man- sions fair, When|we * have crossed cold||Jor- dan’s foam, How sweet will|be *|
w: |||||
w: |||||
V:2
 E x2 | x6 | x6 | x6 | x3 E x2 | x6 | x6 | x2 (AE) x2 | x3 ||[M:4/4] A x2 | x8 | (c6 AA>A A2) | %12
 x8 | x5 E x2 | x8 | (A6 EEE E2) x2 | x8 | x5 |] %18
V:3
 z3 | (z E, A,) z3 | z E, A, z3 | E,4 E,,2 | (A,E, A,) z3 | (z E, A,) z3 | z E, A, z3 | %7
w: |||* ~|~ * *|||
 D,2 E,2 E,,2 | !fermata![A,,A,]3 ||[M:4/4] z3 | z [A,E] [A,E]>[A,E] ([A,E]EC>C) | z [A,C]2 x8 | %12
w: * ~ ~|~||~ ~ ~ ~ * * *|~|
 [A,E]>[A,E] [F,F][F,C] [B,=D]2 B,2 | [E,B,]4 z4 | z A,A,A, A, x3 | z A,2 x10 | %16
w: ~ When we get home, when|we|get home, ~ ~|~|
 [A,C][A,D][A,C][C,A,] [E,A,]2 [E,G,]2 | [A,,A,]4- [A,,A,] |] %18
w: ~ ~ ~ ~ ~ When|we *|
V:4
 x3 | A,,3 x3 | A,,3 x3 | x6 | A,,3 x3 | A,,3 x3 | A,,3 x3 | x6 | x3 ||[M:4/4] x3 | x8 | %11
 C6 A,A,>A, A,2 | x6 B,2 | x8 | x A,A,A, (A,DDD) | C6 A,A,A, A,2 A,2 | x8 | x5 |] %18

